storage/app/icons/phosphoricons/regular/road-horizon.svg

<svg xmlns="http://www.w3.org/2000/svg" fill="currentColor" viewBox="0 0 256 256"><path d="M235.92 199a8 8 0 0 1-10.92-3.08L155.32 72H136v8a8 8 0 0 1-16 0v-8h-19.32L31 195.92a8 8 0 0 1-14-7.84L82.32 72H24a8 8 0 0 1 0-16h208a8 8 0 0 1 0 16h-58.32L239 188.08a8 8 0 0 1-3.08 10.92M128 112a8 8 0 0 0-8 8v16a8 8 0 0 0 16 0v-16a8 8 0 0 0-8-8m0 56a8 8 0 0 0-8 8v16a8 8 0 0 0 16 0v-16a8 8 0 0 0-8-8"/></svg>

<svg xmlns="http://www.w3.org/2000/svg" viewBox="0 0 256 256" fill="currentColor"><path d="M235.92,199A8,8,0,0,1,225,195.92L155.32,72H136v8a8,8,0,0,1-16,0V72H100.68L31,195.92A8,8,0,0,1,17,188.08L82.32,72H24a8,8,0,0,1,0-16H232a8,8,0,0,1,0,16H173.68L239,188.08A8,8,0,0,1,235.92,199ZM128,112a8,8,0,0,0-8,8v16a8,8,0,0,0,16,0V120A8,8,0,0,0,128,112Zm0,56a8,8,0,0,0-8,8v16a8,8,0,0,0,16,0V176A8,8,0,0,0,128,168Z"/></svg>
